X:6
T:Bourre d'Artense
C:Trad.
O:France
A:Artense 
M:3/4
L:1/4
K:F
|: GB>c | d2=e | d/c/ d/e/ f | GB>c | d2=e | d/c/ d/e/ e :|
GB>A | GBA/B/ | c B/c/ d/e/ | dB>A | GBA/B/ | cB/A/G |]
